src/icons/svg/ArrowLeftThin.svg

<svg width="24" height="24" viewBox="0 0 24 24" fill="none" xmlns="http://www.w3.org/2000/svg">
<path d="M9.27001 11.978L17.784 4.184C18.066 3.904 18.066 3.451 17.784 3.17C17.505 2.891 17.052 2.891 16.77 3.17C16.77 3.17 7.70301 11.408 7.66901 11.442C7.51901 11.591 7.45501 11.786 7.46301 11.98C7.45501 12.172 7.52101 12.367 7.66901 12.514C7.70201 12.546 16.77 20.786 16.77 20.786C17.049 21.066 17.502 21.066 17.784 20.786C18.066 20.506 18.066 20.053 17.784 19.772L9.27001 11.977V11.978Z" fill="#1C2125"/>
</svg>

<!-- Generated by IcoMoon.io -->
<svg version="1.1" xmlns="http://www.w3.org/2000/svg" width="24" height="24" viewBox="0 0 24 24">
<title>arrow-left-thin</title>
<path fill="#444" d="M9.27 11.978l8.514-7.794c0.282-0.28 0.282-0.733 0-1.014-0.279-0.279-0.732-0.279-1.014 0 0 0-9.067 8.238-9.101 8.272-0.15 0.149-0.214 0.344-0.206 0.538-0.008 0.192 0.058 0.387 0.206 0.534 0.033 0.032 9.101 8.272 9.101 8.272 0.279 0.28 0.732 0.28 1.014 0s0.282-0.733 0-1.014l-8.514-7.795z"></path>
</svg>
